client/public/assets/icons/utility/toggle_panel_left.svg

<?xml version="1.0"?><svg xmlns="http://www.w3.org/2000/svg" width="52" height="52" viewBox="0 0 52 52"><path fill="#fff" d="m46 8h-40c-1.1 0-2 0.9-2 2v32c0 1.1 0.9 2 2 2h40c1.1 0 2-0.9 2-2v-32c0-1.1-0.9-2-2-2z m-2 32h-36v-28h36v28z m-23-2h-9.9c-0.6 0-1-0.4-1-1v-22c0-0.6 0.4-1 1-1h9.9c0.6 0 1 0.4 1 1v22c0 0.6-0.4 1-1 1z"></path></svg>

<?xml version="1.0" encoding="utf-8"?>
<!-- Generator: Adobe Illustrator 21.1.0, SVG Export Plug-In . SVG Version: 6.00 Build 0)  -->
<svg version="1.1" id="Layer_1" xmlns="http://www.w3.org/2000/svg" xmlns:xlink="http://www.w3.org/1999/xlink" x="0px" y="0px"
	 width="52px" height="52px" viewBox="0 0 52 52" enable-background="new 0 0 52 52" xml:space="preserve">
<path fill="#FFFFFF" d="M46,8H6c-1.1,0-2,0.9-2,2v32c0,1.1,0.9,2,2,2h40c1.1,0,2-0.9,2-2V10C48,8.9,47.1,8,46,8z M44,40H8V12h36V40z
	"/>
<path fill="#FFFFFF" d="M21,38h-9.9c-0.6,0-1-0.4-1-1V15c0-0.6,0.4-1,1-1H21c0.6,0,1,0.4,1,1v22C22,37.6,21.6,38,21,38z"/>
</svg>
